T: Shane O'Neill's March
M: 2/4
L: 1/8
K: Gmaj
|:GA|B2 BA |B2 Bd|B2 BA|B2 AG|Bd g>e|dB AG|A2A>B|A2 GA|
B2 BA|B2 Bd|B2 BA|B2 AG|Bd g>e|dB AB|G2G>F|G2:|
|:ef|g2 fg|e2 ag|fe fd|B2 G/A/B/c/|d2 d>e|dB AG|g2 g>f|g2gf|
e2 e/f/g|d2 e/f/g/e/|dB AG|A2 GA|Bd g>e|dB AB|G2G>F|G2:|
